X:1879
T:"Jettas barn" polkett efter Wilhelm Bergewing
R:Polka
S:Efter Wilhelm Bergewing
O:Karlskoga, Värmland
B:
Z:ABC-transkribering av Per Saxholm
M:2/4
L:1/8
K:D
|a2af|d4|e2ec|A4|B2BA|B2c2|d2e2|f2g2|aaaf|d2f2|eeec|A4|B2BA|B2c2|d4:|d2f2|d2f2|efed|c2e2|a2a2|agfe|d2A2|F2A2|d2f2|d2f2|efed|c2e2|a2aa|agfe|d4:| 
(:musicend:)
(:music:)
